X:2
T:Have You Met Miss Jones
C:Richard Rodgers & Lorenz Hart
L:1/4
M:C
I:linebreak $
K:F
"F" A D C D |"F#o" C4 |"Gm" D E F G |"Go" A B c2 |$"Am" d G"Dm" F G |"G7b5" F2 A2 ||1"Gm" B4 |
"Gb7" z4 :|2$"Gm" c2"C7" z2 ||[K:Bb]"Cm" z d"B7" d d |"Bb" c B"Bb6" F G ||
[K:Gb]"Abm" A A"G7" A A |$"Gb" A G"Gb6" D E ||[K:D]"Em" E E"Eb7" E E |"D" E D"D6" F A ||
[K:Gb]"Abm" d2"G7" z d |$"Gb" B4 ||[K:F]"Gm" z4 "Gb7" x4|"F" A D C D |"F#o" C4 |"Gm" D E F G |$
"C7" A B c d |"Bø" e4 "Abo" x4|"Gm" z d"Gb7" A A |"F6" F4 | z4 |]

